src/icons/SVG/24px/Payment_Cards_Monochrome_OneyX3_24px.svg

<svg width="24" height="24" viewBox="0 0 24 24" fill="none" xmlns="http://www.w3.org/2000/svg">
<g id="Square"> </g>
<g id="Icon">
<path id="Subtract" fill-rule="evenodd" clip-rule="evenodd" d="M19.299 11.8763C19.299 15.9757 15.9757 19.299 11.8763 19.299C7.77686 19.299 4.45361 15.9757 4.45361 11.8763C4.45361 7.77686 7.77686 4.45361 11.8763 4.45361C15.9757 4.45361 19.299 7.77686 19.299 11.8763ZM9.90403 14.1031C9.47955 14.1208 9.0601 14.0058 8.70403 13.774C8.39513 13.5631 8.17146 13.2491 8.0731 12.8882L9.06279 12.5963C9.11696 12.7653 9.22686 12.911 9.37454 13.0095C9.53543 13.1118 9.72332 13.1635 9.91392 13.1579C10.0847 13.1619 10.2516 13.1068 10.3865 13.002C10.5174 12.8974 10.5901 12.7364 10.582 12.569C10.5889 12.4006 10.5097 12.2403 10.3717 12.1435C10.2145 12.0389 10.0283 11.9869 9.8397 11.995H9.29042V11.134H9.81496C9.99006 11.1446 10.1638 11.0977 10.3098 11.0004C10.4357 10.8925 10.5012 10.73 10.4855 10.5649C10.492 10.4188 10.4286 10.2782 10.3147 10.1864C10.1957 10.093 10.0479 10.044 9.8966 10.0478C9.57873 10.0377 9.29842 10.2547 9.22856 10.5649L8.20423 10.268C8.24424 10.114 8.30946 9.96773 8.39722 9.83503C8.49187 9.69573 8.60602 9.57074 8.73619 9.4639C8.88887 9.34384 9.06254 9.25322 9.24836 9.19668C9.46471 9.12992 9.68998 9.09655 9.9164 9.09771C10.3506 9.07709 10.7792 9.20253 11.1337 9.454C11.6157 9.8412 11.7429 10.5223 11.4331 11.0573C11.3221 11.231 11.1569 11.3633 10.963 11.4334C11.174 11.5067 11.3549 11.6476 11.4776 11.8342C11.6259 12.0526 11.7005 12.3127 11.6904 12.5765C11.7024 12.9991 11.52 13.4039 11.1956 13.675C10.8314 13.97 10.3723 14.1221 9.90403 14.1031ZM16.0532 10.2828L14.7567 12.0914L16.0309 14.004H14.7641L14.1035 13.0143L13.5022 14.004H12.2899L13.527 12.1533L12.2899 10.2828H13.5591L14.2024 11.2527L14.8556 10.2828H16.0532Z" fill="black"/>
</g>
</svg>

<svg xmlns="http://www.w3.org/2000/svg" viewBox="0 0 24 24">
  <g id="Square"> </g>
  <path fill-rule="evenodd" d="M19.299 11.876a7.423 7.423 0 11-14.846 0 7.423 7.423 0 0114.846 0zm-9.395 2.227a2.043 2.043 0 01-1.2-.329 1.574 1.574 0 01-.63-.886l.989-.292a.785.785 0 00.312.413c.16.103.348.155.539.149a.742.742 0 00.473-.156.522.522 0 00.195-.433.495.495 0 00-.21-.426.891.891 0 00-.532-.148h-.55v-.861h.525A.805.805 0 0010.31 11a.51.51 0 00.175-.435.46.46 0 00-.17-.379.65.65 0 00-.418-.138.663.663 0 00-.668.517l-1.025-.297c.04-.154.105-.3.193-.433a1.76 1.76 0 01.34-.371c.152-.12.326-.21.511-.267.217-.067.442-.1.668-.1.435-.02.863.106 1.218.357.482.387.609 1.068.3 1.603a.935.935 0 01-.471.376c.211.074.392.215.515.401.148.219.223.479.212.742a1.38 1.38 0 01-.494 1.099 1.928 1.928 0 01-1.292.428zm6.15-3.82l-1.297 1.808 1.274 1.913h-1.267l-.66-.99-.602.99H12.29l1.237-1.85-1.237-1.871h1.27l.642.97.654-.97h1.197z"/>
</svg>
